X: 522
T: Zai liushu
L: 1/8
M: 2/4
K: G
A2A2 [I:setbarnb 1]| 
B2e2 | 
e d B d | 
A4 | 
A A/ G/ E G | 
A2d B | 
A4 | 
gg3 | 
e g e d | 
d2E G | 
A2z2 | 
d d/ d/ F z | 
e> g e d | 
d EG2 | 
A A/ A/ G E | 
D4 |]

@@@ Tune index: 9396
